local/share/icons/dracula-icons-main/16/places/folder-html.svg

<svg width="16" height="16" version="1.1" viewBox="0 0 16 16" xmlns="http://www.w3.org/2000/svg">
 <defs>
  <style id="current-color-scheme" type="text/css">.ColorScheme-Text { color:#FFFFFF; } .ColorScheme-Highlight { color:#5294e2; }</style>
 </defs>
 <path style="fill:currentColor" class="ColorScheme-Text" d="m8 1a7 7 0 0 0-7 7 7 7 0 0 0 7 7 7 7 0 0 0 7-7 7 7 0 0 0-7-7zm0 2a5 5 0 0 1 5 5 5 5 0 0 1-5 5 5 5 0 0 1-5-5 5 5 0 0 1 5-5z"/>
 <path style="fill:currentColor" class="ColorScheme-Text" d="m7.6228 4.0019c0.052612-0.0055 0.11895 0.00314 0.17203 0 0.00629 0.025166-0.038298 0.11472-0.098302 0.24576-0.38209 0.83471-0.40377 1.8122-0.049152 2.3347 0.064172 0.094733 0.12288 0.18489 0.12288 0.19661 0 0.011718-0.069205 0.024537-0.14745 0.024537-0.18369 0-0.35752-0.11196-0.7127-0.3932-0.15778-0.12494-0.3629-0.22988-0.44236-0.24577-0.12479-0.02493-0.15806-0.013998-0.31949 0.14745-0.1502 0.15018-0.1966 0.23115-0.1966 0.36864 0 0.52135 0.61898 0.93577 1.7695 1.1796 1.5624 0.33114 1.9475 0.62845 1.9906 1.45 0.054106 1.0302-0.49435 1.807-1.6957 2.4084-0.14339 0.0718-0.23475 0.09968-0.29491 0.12288-0.02666-0.0024-0.047106 0.0024-0.073688 0-0.010223-0.03185-0.024537-0.10574-0.024537-0.24576 0-0.54718-0.21567-1.1104-0.54066-1.4254-0.087237-0.084556-0.3315-0.26373-0.54067-0.39321-0.20917-0.12948-0.41991-0.27989-0.46694-0.34406-0.077935-0.10649-0.084415-0.17191-0.024537-0.36864 0.10912-0.35929 0.239-0.55941 0.49151-0.78642 0.13238-0.11902 0.26558-0.21882 0.29491-0.22118 0.029334-0.0023592-0.1692-0.06197-0.46694-0.12288-0.29772-0.061027-0.73324-0.18884-0.95842-0.27033-0.41176-0.14899-0.9677-0.46176-1.1796-0.68812-0.0089652-0.0095944-0.016751-0.016043-0.024536-0.024536 0.30366-1.2096 1.1558-2.201 2.2855-2.6787 0.23638-0.099978 0.48005-0.16857 0.73727-0.22118 0.12812-0.026188 0.26092-0.035704 0.39321-0.049152zm3.6864 1.8432c0.09237 0.057095 0.44111 0.81159 0.54067 1.1796 0.12853 0.47515 0.11923 1.2974 0 1.7695-0.04537 0.17965-0.10354 0.34772-0.12288 0.36864-0.01934 0.020919-0.0895-0.099506-0.17203-0.24576-0.082536-0.14623-0.34615-0.45695-0.56524-0.68812-0.63239-0.6673-0.73184-1.0157-0.46694-1.5483 0.13359-0.26856 0.71494-0.8797 0.78642-0.83558z"/>
</svg>

<?xml version="1.0" encoding="UTF-8"?>
<svg xmlns="http://www.w3.org/2000/svg" xmlns:xlink="http://www.w3.org/1999/xlink" width="16" height="16" viewBox="0 0 16 16">
<path fill-rule="nonzero" fill="rgb(100%, 100%, 100%)" fill-opacity="1" d="M 8 1 C 4.132812 1 1 4.132812 1 8 C 1 11.867188 4.132812 15 8 15 C 11.867188 15 15 11.867188 15 8 C 15 4.132812 11.867188 1 8 1 Z M 8 3 C 10.761719 3 13 5.238281 13 8 C 13 10.761719 10.761719 13 8 13 C 5.238281 13 3 10.761719 3 8 C 3 5.238281 5.238281 3 8 3 Z M 8 3 "/>
<path fill-rule="nonzero" fill="rgb(100%, 100%, 100%)" fill-opacity="1" d="M 7.621094 4 C 7.675781 3.996094 7.742188 4.003906 7.792969 4 C 7.800781 4.027344 7.757812 4.117188 7.695312 4.246094 C 7.3125 5.082031 7.292969 6.058594 7.648438 6.582031 C 7.710938 6.675781 7.769531 6.765625 7.769531 6.777344 C 7.769531 6.789062 7.699219 6.804688 7.621094 6.804688 C 7.4375 6.804688 7.265625 6.691406 6.910156 6.410156 C 6.753906 6.285156 6.546875 6.179688 6.46875 6.164062 C 6.34375 6.140625 6.308594 6.152344 6.148438 6.3125 C 6 6.460938 5.953125 6.542969 5.953125 6.679688 C 5.953125 7.203125 6.570312 7.617188 7.722656 7.859375 C 9.285156 8.191406 9.667969 8.488281 9.710938 9.308594 C 9.765625 10.339844 9.21875 11.117188 8.015625 11.71875 C 7.871094 11.789062 7.78125 11.816406 7.722656 11.839844 C 7.695312 11.839844 7.675781 11.84375 7.648438 11.839844 C 7.636719 11.808594 7.621094 11.734375 7.621094 11.597656 C 7.621094 11.046875 7.40625 10.484375 7.082031 10.171875 C 6.996094 10.085938 6.75 9.90625 6.542969 9.777344 C 6.332031 9.648438 6.121094 9.496094 6.074219 9.433594 C 5.996094 9.328125 5.992188 9.261719 6.050781 9.0625 C 6.160156 8.707031 6.289062 8.503906 6.542969 8.277344 C 6.675781 8.160156 6.808594 8.058594 6.835938 8.058594 C 6.867188 8.054688 6.667969 7.996094 6.371094 7.933594 C 6.070312 7.871094 5.636719 7.746094 5.410156 7.664062 C 5 7.515625 4.445312 7.203125 4.230469 6.976562 C 4.222656 6.964844 4.214844 6.960938 4.207031 6.949219 C 4.511719 5.742188 5.363281 4.75 6.492188 4.273438 C 6.730469 4.171875 6.972656 4.105469 7.230469 4.050781 C 7.359375 4.023438 7.492188 4.015625 7.621094 4 Z M 11.308594 5.84375 C 11.402344 5.902344 11.75 6.65625 11.851562 7.023438 C 11.976562 7.5 11.96875 8.320312 11.851562 8.792969 C 11.804688 8.972656 11.746094 9.140625 11.726562 9.164062 C 11.707031 9.183594 11.636719 9.0625 11.554688 8.917969 C 11.472656 8.769531 11.207031 8.460938 10.988281 8.230469 C 10.355469 7.5625 10.257812 7.214844 10.523438 6.679688 C 10.65625 6.410156 11.238281 5.800781 11.308594 5.84375 Z M 11.308594 5.84375 "/>
</svg>
